assets/icons/login.svg

<?xml version="1.0" encoding="UTF-8"?>
<svg width="24px" height="24px" viewBox="0 0 24 24" version="1.1" xmlns="http://www.w3.org/2000/svg" xmlns:xlink="http://www.w3.org/1999/xlink">
    <title>VW/Icons/login</title>
    <defs>
        <path d="M11.9999999,-5.00000006e-08 C5.39999997,-5.00000006e-08 -5.00000006e-08,5.39999997 -5.00000006e-08,11.9999999 C-5.00000006e-08,18.6 5.39999997,23.9999999 11.9999999,23.9999999 C18.6,23.9999999 23.9999999,18.6 23.9999999,11.9999999 C23.9999999,5.39999997 18.6,-5.00000006e-08 11.9999999,-5.00000006e-08 Z M12,23.025 C5.92499997,23.025 0.974999954,18.075 0.974999954,12 C0.974999954,5.92499997 5.92499997,0.974999954 12,0.974999954 C18.075,0.974999954 23.025,5.92499997 23.025,12 C23.025,18.075 18.075,23.025 12,23.025 Z M14.625,13.35 L14.25,13.2 L14.55,12.975 C15.9,12.075 16.65,10.65 16.65,9.07499999 C16.65,6.44999998 14.55,4.34999997 11.925,4.34999997 C9.29999999,4.34999997 7.19999998,6.44999998 7.19999998,9.07499999 C7.19999998,10.65 7.94999998,12.075 9.29999999,12.975 L9.59999999,13.2 L9.22499999,13.35 C6.82499997,14.4 5.32499997,16.725 5.32499997,19.35 L5.32499997,19.65 L6.37499998,19.65 L6.37499998,19.35 C6.37499998,16.35 8.84999999,13.875 11.85,13.875 C14.85,13.875 17.325,16.35 17.325,19.35 L17.325,19.65 L18.375,19.65 L18.375,19.35 C18.6,16.725 17.025,14.4 14.625,13.35 Z M8.32499998,9.14999999 C8.32499998,7.12499998 9.97499999,5.47499997 12,5.47499997 C14.025,5.47499997 15.675,7.12499998 15.675,9.14999999 C15.675,11.175 14.025,12.825 12,12.825 C9.97499999,12.75 8.32499998,11.1 8.32499998,9.14999999 Z" id="path-1"></path>
    </defs>
    <g id="VW/Icons/login" stroke="none" stroke-width="1" fill="none" fill-rule="evenodd">
        <mask id="mask-2" fill="white">
            <use xlink:href="#path-1"></use>
        </mask>
        <g fill-rule="nonzero"></g>
        <g id="Group" mask="url(#mask-2)" fill="#000000">
            <g id="🎨-color">
                <rect id="Swatch" x="0" y="0" width="24" height="24"></rect>
            </g>
        </g>
    </g>
</svg>

<svg
    xmlns="http://www.w3.org/2000/svg"    
    x="0px"
    y="0px"
    viewBox="0 0 24 24"
    aria-labelledby="chevron down"
    role="presentation"
  >
    <title  lang="en">chevron down</title>

    <g fill="currentColor">
	<path id="path-1_00000176749946936800144250000018417001380108596148_" d="M12,0C5.4,0,0,5.4,0,12s5.4,12,12,12s12-5.4,12-12
		S18.6,0,12,0z M12,23C5.9,23,1,18.1,1,12s5-11,11-11s11,5,11,11S18.1,23,12,23z M14.6,13.4l-0.4-0.2l0.3-0.2
		c1.3-0.9,2.1-2.3,2.1-3.9c0-2.6-2.1-4.7-4.7-4.7S7.2,6.4,7.2,9.1c0,1.6,0.8,3,2.1,3.9l0.3,0.2l-0.4,0.2c-2.4,1-3.9,3.4-3.9,6v0.3
		h1.1v-0.3c0-3,2.5-5.5,5.5-5.5s5.5,2.5,5.5,5.5v0.3h1v-0.3C18.6,16.7,17,14.4,14.6,13.4z M8.3,9.1c0-2,1.7-3.7,3.7-3.7
		s3.7,1.7,3.7,3.7S14,12.8,12,12.8C10,12.8,8.3,11.1,8.3,9.1z"/>
</g>
</svg>
